src/16/panel/btsync-gui-disconnected.svg

<svg xmlns="http://www.w3.org/2000/svg" width="16" height="16" version="1.1">
 <defs>
  <style id="current-color-scheme" type="text/css">
   .ColorScheme-Text { color:#dfdfdf; } .ColorScheme-Highlight { color:#4285f4; }
  </style>
 </defs>
 <path style="fill:currentColor;opacity:0.3" class="ColorScheme-Text" d="M 4.5,1.9378222 C 1.1521623,3.8706972 0.00494717,8.1521623 1.9378222,11.5 3.8706972,14.847838 8.1521623,15.995053 11.5,14.062178 14.847838,12.129303 15.995053,7.8478377 14.062178,4.5 12.129303,1.1521623 7.8478377,0.00494717 4.5,1.9378222 Z m 1,1.7320508 C 7.594918,2.4603715 10.20155,2.9388564 11.743863,4.6837791 L 12.696152,4.1339746 12.464102,7.7320508 9.2320508,6.1339746 9.9390791,5.7257716 C 8.9999009,4.9253151 7.6297393,4.7496685 6.5,5.4019238 5.8827105,5.7597672 5.413172,6.3259071 5.1756615,6.9987272 L 3.1079949,6.9994549 C 3.3927443,5.598703 4.263389,4.3867979 5.5,3.669873 Z M 3.5358984,8.2679492 6.7679492,9.8660254 6.0609207,10.274229 c 0.9391782,0.800456 2.30934,0.976103 3.4390793,0.323847 0.617289,-0.357843 1.086828,-0.9239831 1.324339,-1.5968031 l 2.067666,-7.277e-4 C 12.607256,10.401297 11.736596,11.613176 10.5,12.330127 8.405082,13.539629 5.7984504,13.061143 4.2561373,11.316221 L 3.3038476,11.866025 3.5358984,8.2679492 Z"/>
</svg>

<svg xmlns="http://www.w3.org/2000/svg" width="16" height="16"><defs><style id="current-color-scheme" type="text/css">.ColorScheme-Text{color:#dfdfdf;}.ColorScheme-Highlight{color:#5294e2;}</style></defs><defs><style id="current-color-scheme" type="text/css"></style></defs><path d="M4.5 1.938a7 7 0 1 0 7 12.124 7 7 0 0 0-7-12.124zm1 1.732a5.002 5.002 0 0 1 6.244 1.014l.952-.55-.232 3.598-3.232-1.598.707-.408A2.99 2.99 0 0 0 6.5 5.402a3 3 0 0 0-1.324 1.597H3.108A5 5 0 0 1 5.5 3.67zM3.536 8.268l3.232 1.598-.707.408c.94.8 2.31.976 3.439.324a3 3 0 0 0 1.324-1.597h2.068a5 5 0 0 1-2.392 3.33 5.002 5.002 0 0 1-6.244-1.015l-.952.55.232-3.598z" fill="currentColor" opacity=".3" class="ColorScheme-Text"/></svg>
